X: 19498
T: Jackson's Twins
R: jig
M: 6/8
K: Dmajor
|:(3GFE|D2 c BAF|GEG d2 A|D2 c BGB|d2 b AFD|
D2 B BAF|GEG d2 e|fdf BdB|cAF D:|
|:(3cde|f2 e dcB|AFA BGd|f2 e d2 e|fba gfe|
fef dcB|AFA BGd|fdf BdB|cAF D:|

